X:33
T:Rome
T:C.M.
S:John Moore's Book 3
Z:Transcribed by Edmund Spriggs 05/2021
%%VWML: Moore1-4495-p20-0
F:https://www.vwml.org/record/Moore3/4495/p20
N:Tune continues on jpeg page 21
M:C|
L:1/4
V:1 clef=treble
V:2 clef=treble
V:3 clef=treble
V:4 clef=bass
K:G
[V:1]B2BF|G2c2|B2(AG)|(G2!fermata!F)A|
[V:2]d2dd|d2g2|g2e2|!fermata!d3f|
[V:3]"Air"G2GA|B2c2|d2(cB)|(B2!fermata!A)d|
[V:4]G,,2B,,D,|G,2E,2|B,,2c,,^c,,|!fermata!d,,3d,,|
[V:1](Bd)(ec)|B2A2|!fermata!G2|]
[V:2]g2(ge)|d3c|!fermata!B2|]
[V:3](dB)(cA)|G2F2|!fermata!G2|]
[V:4]G,2C,2|D,2D,2|!fermata!G,,2|]
[V:1]d2|d2d2|d2^c>B|A2A2|!fermata!A3z1|
[V:2]g2|(fg)(af)|g2g2|e3e|!fermata!f3z1|
[V:3]B2|A2A2|B2(ed)|^c3c|!fermata!d3D|
[V:4]G,2|(D,E,)(G,D,)|G,2E,2|A,2A,,2|!fermata!D,3z1|
[V:1]z4|z4|z4|z3A|
[V:2]z4|z3d|fgag|"^<"g3!a|
[V:3]GABd|{B}A3D|ABcd|cB2d|
[V:4]z4|z3D,|D,D,D,D,|G,3F,|
[V:1]B2c2|(dG)(GF)|G4|]
[V:2](gde)g|(ge)(dc)|B4|]
[V:3](dBge)|(dc)(BA)|G4|]
[V:4]G,2C,2|B,,C,D,2|G,,4|]

